X:131
%%etbk:tnset id:46,pos:3,rep:3x,ant:
%%etbk:wsite http://www.thesession.org/tunes/display/426
%%etbk:skill ?
%%etbk:pldat 2013-11-26T16:59,2013-11-25T19:23,2013-11-23T15:51
T: Ormond Sound
Z: Piano Box Version by Martin Fleischmann
H: Created 2013-02-19 /  Last Modified 2013-03-29
M: 4/4
L: 1/8
R: reel
K: Ador
|: "am"!1!A2 !5!ed !2!B!5!e!4!d!1!B | "G"!3!A!2!G!1!G!2!G !3!A!2!G!1!E!2!G | "am"!1!A2!5!ed !2!B!1!d!2!ef  | "em"!4!ggga !4!ged!4!g | 
"am"!2!e!1!A!2!A!1!A !2!B!5!e!4!d!1!B | "G"!3!A!2!G!1!E!2!F !3!G3 !4!A| "am"!1!E2!2!A!2!A !3!B!2!A!3!B!1!d| "em"!4!g!2!e!1!d!2!B "am"!1!A4:||
|: "am"!2!efge !5!agfg | !2!e2!5!ag !2!e!1!d!2!B!1!d | !2!egfa !4!g3e | "G"!1!d2!4!g!2!e !1!d!2!B!1!G!2!B |
"am"!3!c3!1!A "G"!3!d3!1!B | "am"!2!efge !5!a2 !3!ga | "em"!5!b!3!g!2!g!3!g !4!agab | !3!g!2!e!1!d!2!B "am"!1!A4:|
